X:257
T:Yo Yea
%%VWML:SBG-1-2-728-0
F:http://www.vwml.org/record/SBG/1/2/728
Z:Original Sibelius transcriptions by M. & S. Graebe
M:6/8
I:linebreak $
K:F
V:1 treble nm="P1"
V:1
 c | A F F E G B | A c z z f3/2 f/ | c A F D G B | (F3 E2) A |$ c B A d c B | c A2 F3 | %7
 c (BA) c A f | c3- c2 c | (A2 c) A2 c | (A3 A2) z | %11

